X:1
T:Spring Carol, 76.76 D
T:Grace Wilbur Conant, 1913
T:Spring Carol, 76.76 D
T:Public Domain
T:Public Domain
C:Grace Wilbur Conant, 1913
Z:Public Domain
%%score 1 { ( 2 3 ) | ( 4 5 ) }
L:1/8
M:9/8
K:F
V:1 treble 
V:2 treble 
V:3 treble 
V:4 bass 
V:5 bass 
V:1
 A4 GF D2 F | A3 A6 | c4 =BA F2 A | c6 z3 | c4 BA ^FGc | d3 c3 FEF | A6 D3 | G6 z3 | A4 GF D2 F | %9
 A3 A6 | c4 =BA F2 A | c6 z3 | e4 dc fed | c3 B3 DEF | A6 G3 | F6 z3 |] %16
V:2
 [A,C]2 z AGF [B,D]2 F | [A,C]2 z [A,C]2 z [CF]2 z | [CE]2 z c=BG [DF]2 A | [CE]2 z [CE]2 z4 | %4
 c4 BA ^FGc | F2 z F2 z FEF | =B,2 z B,2 z [B,D]2 z | D3 C3 [B,^G]3 | [A,C]2 z AGF [B,D]2 F | %9
 [A,C]2 z [A,C]2 z [CF]2 z | [CE]2 z c=BA [DF]2 A | [CE]2 z [CE]2 z E2 z | %12
 [EB]2 z [EBe][Fd][Gc] fe[Fd] | [DFc]3 [DFB]3 D[DE][DF] | D3 ^D3 [B,EG]3 | [A,CF]6 z3 |] %16
V:3
 A3- [A,C]2 x4 | A3 A3 x3 | c3- [CE]2 x4 | c6 x3 | x6 E2 x | d3 c3 C2 x | A6 x3 | ^G6 x3 | %8
 A3- [A,C]2 x4 | A3 A6 | c3- [CE]2 x4 | c6 x3 | e3- x [Fc]2 x3 | x9 | A6 x3 | x9 |] %16
V:4
 [E,,C,]2 z [C,,C,]2 z [F,,D,]2 z | F,,2 z F,2 z C,2 z | [A,,E,]2 z [E,,E,]2 z [A,,F,]2 z | %3
 [A,,E,]2 z A,2 z C2 z | [B,C]2 z [B,C]2 z [C,B,]2 z | [C,A,]2 z C2 z A,G,F, | %6
 [G,,F,]2 z D,,2 z [G,,F,]2 z | (F,3 E,3 D,3) | [F,,C,]2 z [C,,C,]2 z [F,,D,]2 z | %9
 F,,2 z F,2 z C,2 z | [A,,E,]2 z [E,,E,]2 z [A,,F,]2 z | [A,,E,]2 z A,2 z C2 z | %12
 G,,2 z (C[B,D][B,E] [A,C]2 [A,,F,] | [G,,G,]2) z B,2 z [G,B,][G,B,][G,B,] | C,2 z C,,2 z C,3 | %15
 [F,,C,]6 z3 |] %16
V:5
 x9 | x9 | x9 | x9 | x9 | x6 D,2 x | x9 | C,,6 x3 | x9 | x9 | x9 | x9 | x9 | x9 | B,6 x3 | x9 |] %16

